assets/icons/icons8-home.svg

<svg xmlns="http://www.w3.org/2000/svg"  viewBox="0 0 50 50" width="24px" height="24px"><path d="M 24.962891 1.0546875 A 1.0001 1.0001 0 0 0 24.384766 1.2636719 L 1.3847656 19.210938 A 1.0005659 1.0005659 0 0 0 2.6152344 20.789062 L 4 19.708984 L 4 46 A 1.0001 1.0001 0 0 0 5 47 L 18.832031 47 A 1.0001 1.0001 0 0 0 19.158203 47 L 30.832031 47 A 1.0001 1.0001 0 0 0 31.158203 47 L 45 47 A 1.0001 1.0001 0 0 0 46 46 L 46 19.708984 L 47.384766 20.789062 A 1.0005657 1.0005657 0 1 0 48.615234 19.210938 L 41 13.269531 L 41 6 L 35 6 L 35 8.5859375 L 25.615234 1.2636719 A 1.0001 1.0001 0 0 0 24.962891 1.0546875 z M 25 3.3222656 L 44 18.148438 L 44 45 L 32 45 L 32 26 L 18 26 L 18 45 L 6 45 L 6 18.148438 L 25 3.3222656 z M 37 8 L 39 8 L 39 11.708984 L 37 10.146484 L 37 8 z M 20 28 L 30 28 L 30 45 L 20 45 L 20 28 z"/></svg>

<svg xmlns="http://www.w3.org/2000/svg" xmlns:xlink="http://www.w3.org/1999/xlink" viewBox="0,0,256,256" width="50px" height="50px"><g fill="#c23298" fill-rule="nonzero" stroke="none" stroke-width="1" stroke-linecap="butt" stroke-linejoin="miter" stroke-miterlimit="10" stroke-dasharray="" stroke-dashoffset="0" font-family="none" font-weight="none" font-size="none" text-anchor="none" style="mix-blend-mode: normal"><g transform="scale(5.12,5.12)"><path d="M24.96289,1.05469c-0.20987,0.00724 -0.41214,0.08036 -0.57812,0.20898l-23,17.94727c-0.43579,0.33978 -0.51361,0.96851 -0.17383,1.4043c0.33978,0.43579 0.96851,0.51361 1.4043,0.17383l1.38477,-1.08008v26.29102c0.00006,0.55226 0.44774,0.99994 1,1h13.83203c0.10799,0.01785 0.21818,0.01785 0.32617,0h11.67383c0.10799,0.01785 0.21818,0.01785 0.32617,0h13.8418c0.55226,-0.00006 0.99994,-0.44774 1,-1v-26.29102l1.38477,1.08008c0.2819,0.21983 0.65967,0.27257 0.991,0.13833c0.33133,-0.13423 0.56586,-0.43504 0.61526,-0.7891c0.0494,-0.35406 -0.09386,-0.70757 -0.37579,-0.92736l-7.61523,-5.94141v-7.26953h-6v2.58594l-9.38477,-7.32227c-0.18607,-0.14428 -0.41707,-0.21828 -0.65234,-0.20898zM25,3.32227l19,14.82617v26.85156h-12v-19h-14v19h-12v-26.85156zM37,8h2v3.70898l-2,-1.5625zM20,28h10v17h-10z"></path></g></g></svg>
